X:1
T:Title
%%score { ( 1 3 ) | 2 }
L:1/8
M:6/8
K:F
V:1 treble nm="Grand Piano"
V:3 treble 
V:2 bass 
V:1
 z3 z2[Q:1/4=81] C | CF[EG] [FA]2 A | [FA][Ac][Bd] [Ac]2 A | [Ec]GA [GB][FA][EG] | %4
[M:5/8] [FA]-[FA]- [FA]3 |[M:1/8] z |[M:3/4] CF [EG] [FA]2 A | [FA][Ac] [Bd] [Ac]2 A | %8
 [EG][Ec] [Ec][D=B] [Ec][Fd] |[M:5/8] [Ec]-[Ec]- [Ec]3 |[M:1/8] c |[M:3/4] [Ac][_A=B] .[G_B]2 C=A | %12
 z2 z .[DF]3 | [EG][Ec] [Ec]e- [^Fe]d |[M:5/8] [Ec]-[Ec]- [Ec]3 |[M:1/8] z | %16
[M:3/4] CF [EG] [FA]2 A | [FA][Ac] [Bd] [Ac]2 A | [Ac][GB] [FA][CA] [A,F][B,G] | [A,F]6 | c3 d3 | %21
 z2 z G3 | A3 F3 | z2 z [_B,CEG]3[K:bass] | c-[FAc-] [FAc]d- [FAd-][FAd] | %25
 [Cc][FA] [FB]G- [B,CEG-][B,CEG] |[M:4/4] [A,EA][A,FA][DFB][CFA] [DFG]2 [B,EG]2 | %27
[M:5/8] [A,F]-[A,F]- [A,F]3 |] %28
V:2
 z6 | F,,/A,,/C,/F,/C,/A,,/ F,,F,F | F,,/A,,/C,/F,/C,/A,,/ F,,F,F | %3
 [C,,C,][K:treble][CE][CF][K:bass] [C,,C,]CC |[M:5/8] F,,/A,,/C,/F,/C,/A,,/ F,,F, |[M:1/8] C | %6
[M:3/4] F,,/A,,/C,/F,/ C,/A,,/F,, F,F | F,,/A,,/C,/F,/ C,/A,,/F,, F,F | G,,G, G,G,, G,G, | %9
[M:5/8] [C,,C,]/E,/G,/C/G,/E,/ C,C |[M:1/8] C |[M:3/4] [C,,C,][D,,D,] [E,,E,]F,, F,[F,CF] | %12
 [A,,,A,,][=B,,,=B,,] [^C,,^C,][D,,D,] z [D,A,] | [G,,G,][G,C] [G,C][G,,G,] A,[G,=B,F] | %14
[M:5/8] [C,C]/E,/G,/C/G,/E,/ C,C |[M:1/8] C |[M:3/4] F,,/A,,/C,/F,/ C,/A,,/F,, F,F | %17
 F,,/A,,/C,/F,/ C,/A,,/F,, F,F | C,,C CC,, C,C, | F,C, A,, .F,,3 | %20
 [F,,F,][F,C] [F,C][D,,D,] [D,A,][D,A,] | [G,,G,][G,B,] [G,B,][C,,C,] [C,G,B,][C,G,B,] | %22
 [^C,,^C,][E,A,] [E,A,][D,,D,] [D,A,][D,A,] | [G,,,G,,][G,,D,F,] [G,,D,F,][C,,C,] D,,E,, | %24
 [F,,F,][F,C] [F,C][D,,D,] [D,A,][D,A,] | [G,,G,][G,D] [G,D][C,,C,] C,C, | %26
[M:4/4] ^C,D,G,,A,, B,,2 C,2 |[M:5/8] F,-F,- F,3 |] %28
V:3
 x6 | x6 | x6 | x6 |[M:5/8] x5 |[M:1/8] x |[M:3/4] x6 | x6 | x6 |[M:5/8] x5 |[M:1/8] x | %11
[M:3/4] z2 z .[F=A]3 | [^CA][D_A] .[EG]2 [D,A,][FB] | z2 z G z2 |[M:5/8] x5 |[M:1/8] x | %16
[M:3/4] x6 | x6 | x6 | x6 | C[FA] [FA]D [FA][FA] | [Dc][DA] [DB][CE] [CE][CE] | A,E EA, DD | %23
 [=B,A][B,G] .[B,D]2[K:bass] D,E, | .C2 z D z2 | z2 z [CE] z2 |[M:4/4] x8 |[M:5/8] x5 |] %28

